assets/icons/uEA02-sort-asc.svg

<?xml version="1.0" encoding="UTF-8" standalone="no"?>
<svg
   xmlns:dc="http://purl.org/dc/elements/1.1/"
   xmlns:cc="http://creativecommons.org/ns#"
   xmlns:rdf="http://www.w3.org/1999/02/22-rdf-syntax-ns#"
   xmlns:svg="http://www.w3.org/2000/svg"
   xmlns="http://www.w3.org/2000/svg"
   xmlns:sodipodi="http://sodipodi.sourceforge.net/DTD/sodipodi-0.dtd"
   xmlns:inkscape="http://www.inkscape.org/namespaces/inkscape"
   version="1.1"
   width="896"
   height="1232"
   viewBox="0 0 896 1232"
   id="svg2995"
   inkscape:version="0.48.5 r10040"
   sodipodi:docname="uEA02-sort-asc.svg">
  <metadata
     id="metadata3002">
    <rdf:RDF>
      <cc:Work
         rdf:about="">
        <dc:format>image/svg+xml</dc:format>
        <dc:type
           rdf:resource="http://purl.org/dc/dcmitype/StillImage" />
        <dc:title />
      </cc:Work>
    </rdf:RDF>
  </metadata>
  <defs
     id="defs3000" />
  <sodipodi:namedview
     pagecolor="#ffffff"
     bordercolor="#666666"
     borderopacity="1"
     objecttolerance="10"
     gridtolerance="10"
     guidetolerance="10"
     inkscape:pageopacity="0"
     inkscape:pageshadow="2"
     inkscape:window-width="980"
     inkscape:window-height="678"
     id="namedview2998"
     showgrid="false"
     inkscape:zoom="0.19155844"
     inkscape:cx="448"
     inkscape:cy="478.36437"
     inkscape:window-x="243"
     inkscape:window-y="128"
     inkscape:window-maximized="0"
     inkscape:current-layer="svg2995" />
  <path
     d="M 89.0541,469.98696 220.01529,337.93491 350.97656,469.98696 440.01532,379.83246 228.1772,165.85575 220.01529,158 l -0.37092,0.37406 -0.371,0 -219.25805,221.4584 z"
     id="icon104-2"
     inkscape:connector-curvature="0" />
  <path
     d="m 220,952 -0.34375,-0.375 -0.375,0 L 0,730.15625 89.0625,640 220,772.0625 350.96875,640 440,730.15625 228.1875,944.125 220,952 z m -0.15625,-19.5 C 286.93419,865.27734 353.39727,797.58476 420.3125,730.15625 l -69.5,-70.25 C 307.1962,703.91504 263.55239,747.89674 220,791.96875 176.45985,747.90619 132.82253,703.92678 89.1875,659.875 l -69.5,70.28125 L 219.84375,932.5 z"
     id="path3000"
     inkscape:connector-curvature="0" />
</svg>

<svg xmlns="http://www.w3.org/2000/svg" width="896" height="1232" viewBox="0 0 896 1232"><path d="M89.054 469.987l130.96-132.052 130.963 132.052 89.038-90.155-211.838-213.976-8.162-7.856-.37.374h-.372L.015 379.832zM220 952l-.344-.375h-.375L0 730.155 89.063 640 220 772.063 350.97 640 440 730.156l-211.813 213.97L220 952zm-.156-19.5c67.09-67.223 133.553-134.915 200.47-202.344l-69.502-70.25c-43.616 44.01-87.26 87.99-130.812 132.063-43.54-44.064-87.177-88.043-130.813-132.095l-69.5 70.28L219.845 932.5z"/></svg>
